X:1
T:Title
%%score { ( 1 3 ) | ( 2 4 ) }
L:1/8
M:4/4
K:F
V:1 treble nm="Grand Piano"
V:3 treble 
V:2 bass 
V:4 bass 
V:1
 z4 z2[Q:1/4=100] CC | F2 F2 [EG]2 [DF][EG] | [FA][EG]AB c2 cc | d2 c2 B2 A2 | [FA]4 [EG]2 CC | %5
 F2 F2 [EG]2 [DF]G | [FA][EG]AB c2 cc | dcBA [FA]2 E->[EA] | [B,EG]4 [A,F]2 z2 | %9
 [EG]3 [FA] [GB][FA] [EG]2 | A2 B2 c2 A2 | [EG]3 [FA] [GB][FA] [EG]2 | A4 c2 c2 | %13
 [Fd]2 [Fd]2 [CEG]2 .[CEA]2 |[M:9/8] [CFc]2 [CFc]- [CFc] [A,F]2- [A,F] [DB]2 | %15
[M:4/4] ABcd [CFA]2 E->[EA] |[M:3/4] [B,EG]4 [A,CF]2 |] %17
V:2
 z4 z2 [F,A,][F,A,] | [F,A,C]2 [F,A,C]2 [C,C]2 [C,C][C,C] | %2
 F,C,[K:treble]C-[G,CE] [A,CF]2 [A,CF][A,CF] | [B,F]2 [A,CF]2[K:bass] [G,CE]2 [F,CF]2 | %4
 [C,C]4 [C,C]2 [E,B,][E,B,] | [F,A,C]2 [F,A,C]2 [C,C]2 z E | %6
 F,C,[K:treble]C-[G,CE] [A,CF]2 [A,CF][A,CF] | F-[A,CF][K:bass]C-[F,CF] [C,C]2 z z/ C/ | %8
 C,4 F,,2 z2 | [C,C]3 [C,C] [C,C]2 [C,C]2 | [F,CF]2[K:treble] [G,CE]2 [A,CF]2[K:bass] [F,CF]2 | %11
 [C,C]3 [C,C] [C,C]2 [C,C]2 | [F,CF]4 [F,A,F]2 [F,A,F]2 | [B,,B,]2 [B,,B,]2 B,,2 z[K:treble] B | %14
[M:9/8][K:bass] A,,2 A,,- A,, D,2- D, [G,,F,]2 |[M:4/4] [C,C]-[C,G,C]A,B, C,2 z z/ C/ | %16
[M:3/4] C,4 F,,2 |] %17
V:3
 x8 | x8 | C2 z2 z4 | x8 | x8 | x8 | C2 z2 z4 | z4 z2 [B,G]2 | x8 | x8 | x8 | x8 | x8 | x8 | %14
[M:9/8] x9 |[M:4/4] z2 F2 z2 [B,G]2 |[M:3/4] x6 |] %17
V:4
 x8 | x8 | z2[K:treble] .[F,F]2 z4 | x4[K:bass] x4 | x8 | z4 z2 [C,C]2 | z2[K:treble] .[F,F]2 z4 | %7
 .B,2[K:bass] .[G,E]2 z2 C,2 | x8 | x8 | x2[K:treble] x4[K:bass] x2 | x8 | x8 | %13
 z4 z2 B,,2[K:treble] |[M:9/8][K:bass] x9 |[M:4/4] .F,2 C,2 z2 C,2 |[M:3/4] x6 |] %17

